X:3341
T:Connemara Skies
R:Hornpipe
C:Ed Reavy
M:4/4
L:1/8
Z:Joe Reavy
N:It is one of Ed's many exquisite hornpipes. 
N:Nice to pair it with Munster Grass. Both titles come from a 
N:line in Yeats: "full of Munster grass and Connemara skies."
K:D
FE|DA,G,A, FA,G,A,|GFGB ADFA|dAFA Bdgf|
(3edc (3dcB (3AGF (3GFE|DA,G,A, FA,G,A,|
GFGB AdcB|Adfa gece|dfaf d2:||cd|edcd fage|
fd (3dcd bagf|edcd efgf|(3edc (3dcB AGFG|
fdcd fage|fd (3dcd bagf|edcB Acec|dfaf d2:||


